public/ic_cible.svg

<svg width="96" height="61" viewBox="0 0 96 61" fill="none" xmlns="http://www.w3.org/2000/svg">
<path d="M46.7943 12.4447C40.5782 12.4447 34.6166 14.9281 30.2211 19.3486C25.8256 23.7691 23.3562 29.7646 23.3562 36.0161C23.3562 42.2677 25.8256 48.2631 30.2211 52.6836C34.6166 57.1041 40.5782 59.5876 46.7943 59.5876C53.0105 59.5876 58.9721 57.1041 63.3676 52.6836C67.7631 48.2631 70.2325 42.2677 70.2325 36.0161C70.2325 29.7646 67.7631 23.7691 63.3676 19.3486C58.9721 14.9281 53.0105 12.4447 46.7943 12.4447Z" fill="#E6F6FF"/>
<path d="M46.7943 17.8844C42.0127 17.8844 37.4268 19.7947 34.0457 23.1951C30.6645 26.5955 28.765 31.2074 28.765 36.0163C28.765 40.8251 30.6645 45.437 34.0457 48.8374C37.4268 52.2378 42.0127 54.1481 46.7943 54.1481C51.576 54.1481 56.1619 52.2378 59.543 48.8374C62.9242 45.437 64.8237 40.8251 64.8237 36.0163C64.8237 31.2074 62.9242 26.5955 59.543 23.1951C56.1619 19.7947 51.576 17.8844 46.7943 17.8844Z" fill="#F3B8BF"/>
<path d="M46.7943 24.2303C43.6862 24.2303 40.7054 25.4721 38.5076 27.6823C36.3099 29.8926 35.0752 32.8903 35.0752 36.0161C35.0752 39.1418 36.3099 42.1396 38.5076 44.3498C40.7054 46.5601 43.6862 47.8018 46.7943 47.8018C49.9024 47.8018 52.8831 46.5601 55.0809 44.3498C57.2786 42.1396 58.5133 39.1418 58.5133 36.0161C58.5133 32.8903 57.2786 29.8926 55.0809 27.6823C52.8831 25.4721 49.9024 24.2303 46.7943 24.2303Z" fill="#E6F6FF"/>
<path d="M46.7943 30.5764C45.3598 30.5764 43.984 31.1495 42.9697 32.1696C41.9554 33.1897 41.3855 34.5733 41.3855 36.016C41.3855 37.4586 41.9554 38.8422 42.9697 39.8623C43.984 40.8824 45.3598 41.4555 46.7943 41.4555C48.2288 41.4555 49.6046 40.8824 50.6189 39.8623C51.6332 38.8422 52.2031 37.4586 52.2031 36.016C52.2031 34.5733 51.6332 33.1897 50.6189 32.1696C49.6046 31.1495 48.2288 30.5764 46.7943 30.5764Z" fill="#ED7899"/>
<path d="M29.5763 30.4853C29.6665 30.4853 29.7566 30.576 29.9369 30.576C30.2975 30.576 30.6581 30.3947 30.7482 30.032C30.9285 29.4881 31.199 28.8535 31.4694 28.3095C31.6497 27.8562 31.4694 27.3123 31.1088 27.1309C30.6581 26.9496 30.1172 27.1309 29.9369 27.4936C29.6665 28.1282 29.3059 28.7628 29.1256 29.3974C28.8552 29.8507 29.1256 30.304 29.5763 30.4853Z" fill="#8D6C9F"/>
<path d="M46.7943 16.9772C43.8195 16.9772 40.9348 17.7024 38.2304 18.9717C37.7797 19.153 37.5994 19.697 37.8698 20.1503C38.0501 20.6035 38.591 20.7849 39.0417 20.5129C41.4757 19.3343 43.9998 18.6997 46.7042 18.6997C56.1696 18.6997 63.8321 26.4057 63.8321 35.925C63.8321 45.4442 56.1696 53.1503 46.7042 53.1503C37.2388 53.1503 29.5763 45.4442 29.5763 35.925C29.5763 35.0184 29.6665 34.2024 29.7566 33.2959C29.8468 32.8426 29.4862 32.2986 29.0354 32.2986C28.5847 32.2079 28.0438 32.5706 28.0438 33.0239C27.8635 33.9305 27.8635 34.9277 27.8635 35.8343C27.8635 46.3508 36.3373 54.8728 46.7943 54.8728C57.2513 54.8728 65.7251 46.3508 65.7251 35.8343C65.7251 25.3178 57.2513 16.9772 46.7943 16.9772Z" fill="#8D6C9F"/>
<path d="M46.7944 42.3628C50.3101 42.3628 53.1046 39.5523 53.1046 36.0166C53.1046 32.4809 50.3101 29.6705 46.7944 29.6705C46.4338 29.6705 46.0732 29.6705 45.7126 29.7611C45.2619 29.8518 44.9013 30.3051 44.9914 30.849C45.0816 31.3023 45.5323 31.665 46.0732 31.5743C46.3436 31.5743 46.6141 31.4837 46.7944 31.4837C49.3185 31.4837 51.3017 33.4782 51.3017 36.0166C51.3017 38.5551 49.3185 40.5496 46.7944 40.5496C44.2703 40.5496 42.287 38.5551 42.287 36.0166C42.287 35.7447 42.287 35.4727 42.3772 35.2914C42.4673 34.8381 42.1067 34.2941 41.656 34.2034C41.1151 34.1128 40.6644 34.4754 40.5742 34.9287C40.4841 35.2914 40.4841 35.654 40.4841 36.0166C40.4841 39.5523 43.2786 42.3628 46.7944 42.3628ZM45.8929 45.9892V47.8023C45.8929 48.3463 46.2535 48.7089 46.7944 48.7089C47.3352 48.7089 47.6958 48.3463 47.6958 47.8023V45.9892C47.6958 45.4452 47.3352 45.0826 46.7944 45.0826C46.2535 45.0826 45.8929 45.4452 45.8929 45.9892ZM35.0753 36.9232H36.8782C37.4191 36.9232 37.7797 36.5606 37.7797 36.0166C37.7797 35.4727 37.4191 35.11 36.8782 35.11H35.0753C34.5344 35.11 34.1738 35.4727 34.1738 36.0166C34.1738 36.5606 34.5344 36.9232 35.0753 36.9232ZM40.4841 46.9864C40.6644 47.0771 40.7545 47.0771 40.9348 47.0771C41.2053 47.0771 41.5659 46.8958 41.7461 46.6238L42.6476 45.0826C42.9181 44.6293 42.7378 44.0853 42.287 43.8133C41.8363 43.5414 41.2954 43.7227 41.025 44.176L40.1235 45.7172C39.9432 46.1705 40.0334 46.7144 40.4841 46.9864ZM36.1571 30.9397L37.6895 31.8463C37.8698 31.937 37.96 31.937 38.1403 31.937C38.4107 31.937 38.7713 31.7556 38.9516 31.4837C39.222 31.0304 39.0417 30.4864 38.591 30.2144L37.0585 29.3078C36.6078 29.0359 36.0669 29.2172 35.7965 29.6705C35.6162 30.1238 35.7965 30.6677 36.1571 30.9397ZM37.7797 40.187L36.2472 41.0936C35.7965 41.3655 35.7063 41.9095 35.8866 42.3628C36.0669 42.6348 36.3373 42.8161 36.6979 42.8161C36.8782 42.8161 36.9684 42.8161 37.1487 42.7254L38.6812 41.8188C39.1319 41.5469 39.222 41.0029 39.0417 40.5496C38.7713 40.0963 38.1403 40.0056 37.7797 40.187Z" fill="#8D6C9F"/>
<path d="M57.6119 36.017C57.6119 40.0967 55.3583 43.8137 51.7524 45.6269C51.3017 45.8989 51.1214 46.4428 51.3918 46.8055C51.5721 47.0775 51.8425 47.2588 52.2031 47.2588C52.3834 47.2588 52.4736 47.2588 52.6539 47.1681C56.8006 45.0829 59.4149 40.7313 59.4149 36.017C59.4149 29.0362 53.7356 23.3247 46.7943 23.3247C44.8111 23.3247 42.7377 23.778 40.9348 24.7753C40.4841 25.0472 40.3038 25.5912 40.5742 25.9538C40.8446 26.4071 41.3855 26.5884 41.7461 26.3165C43.2786 25.5005 44.9914 25.0472 46.7042 25.0472C52.744 25.1379 57.6119 30.0335 57.6119 36.017Z" fill="#8D6C9F"/>
<ellipse cx="46.8763" cy="35.9341" rx="23.9298" ry="24.0659" stroke="#8D6C9F" stroke-width="1.8"/>
<path d="M15.7347 15L7.5 7.25275L9.5 2.5L15.7347 7.25275V15Z" fill="#E6F6FF"/>
<path d="M7.5 15.9998L2.5 9.99976L6.72002 6.34595L15.7347 15.4119L7.5 15.9998Z" fill="#ED7899"/>
<path d="M26.8801 27.3626L15.7347 16.1538M4.91709 5.27472L7.53954 7.91209M7.53954 7.91209V4.71617C7.53954 2.95049 9.66055 2.05103 10.9298 3.27844L15.4174 7.6179C15.8277 8.01475 16.049 8.56804 16.0253 9.13843L15.7347 16.1538M7.53954 7.91209L15.7347 16.1538M7.53954 7.91209H4.67407C2.91458 7.91209 2.01248 10.0203 3.22738 11.2931L7.27644 15.5348C7.65383 15.9302 8.17657 16.1538 8.72313 16.1538H15.7347" stroke="#8D6C9F" stroke-width="1.8" stroke-linecap="round"/>
<path d="M80.4399 29.1686L88.6235 21.0808L93.5 22.5001L87.6513 29.2319L80.4399 29.1686Z" fill="#E6F6FF"/>
<path d="M80.6091 21.0016L86.5 15.5L89.6313 20.1741L80.5384 29.1606L80.6091 21.0016Z" fill="#ED7899"/>
<path d="M68.5586 40.2648L79.8009 29.1542M90.7124 18.3704L88.0672 20.9847M88.0672 20.9847L91.2552 21.0126C93.0154 21.0281 93.8988 23.1457 92.6714 24.4073L88.296 28.9044C87.8949 29.3166 87.3358 29.5362 86.7614 29.5071L79.8009 29.1542M88.0672 20.9847L79.8009 29.1542M88.0672 20.9847L88.0921 18.1133C88.1074 16.3484 85.9959 15.4301 84.7156 16.6448L80.4854 20.6581C80.0918 21.0315 79.8668 21.5489 79.8621 22.0915L79.8009 29.1542" stroke="#8D6C9F" stroke-width="1.8" stroke-linecap="round"/>
</svg>

<svg xmlns="http://www.w3.org/2000/svg" width="96" height="61" fill="none"><path fill="#E6F6FF" d="M46.794 12.445a23.37 23.37 0 0 0-16.573 6.904 23.64 23.64 0 0 0-6.865 16.667 23.64 23.64 0 0 0 6.865 16.668 23.37 23.37 0 0 0 16.573 6.904 23.37 23.37 0 0 0 16.574-6.904 23.64 23.64 0 0 0 6.865-16.668 23.64 23.64 0 0 0-6.865-16.667 23.37 23.37 0 0 0-16.574-6.904"/><path fill="#F3B8BF" d="M46.794 17.884c-4.781 0-9.367 1.91-12.748 5.311a18.18 18.18 0 0 0-5.281 12.821c0 4.81 1.9 9.421 5.28 12.821a17.98 17.98 0 0 0 12.75 5.311c4.781 0 9.367-1.91 12.748-5.31a18.18 18.18 0 0 0 5.28-12.822 18.18 18.18 0 0 0-5.28-12.82 17.98 17.98 0 0 0-12.749-5.312"/><path fill="#E6F6FF" d="M46.794 24.23a11.7 11.7 0 0 0-8.286 3.452 11.82 11.82 0 0 0-3.433 8.334 11.82 11.82 0 0 0 3.433 8.334 11.7 11.7 0 0 0 8.286 3.452c3.108 0 6.09-1.242 8.287-3.452a11.82 11.82 0 0 0 3.432-8.334 11.82 11.82 0 0 0-3.432-8.334 11.7 11.7 0 0 0-8.287-3.452"/><path fill="#ED7899" d="M46.794 30.576a5.4 5.4 0 0 0-3.824 1.594 5.46 5.46 0 0 0-1.584 3.846c0 1.443.57 2.826 1.584 3.846a5.4 5.4 0 0 0 3.824 1.593c1.435 0 2.81-.573 3.825-1.593a5.46 5.46 0 0 0 1.584-3.846c0-1.443-.57-2.826-1.584-3.846a5.4 5.4 0 0 0-3.825-1.594"/><path fill="#8D6C9F" d="M29.576 30.485c.09 0 .18.091.36.091.361 0 .722-.181.812-.544.18-.544.451-1.178.721-1.723.18-.453 0-.997-.36-1.178-.45-.181-.992 0-1.172.363-.27.634-.631 1.269-.811 1.903-.27.454 0 .907.45 1.088"/><path fill="#8D6C9F" d="M46.794 16.977c-2.974 0-5.86.725-8.564 1.995-.45.181-.63.725-.36 1.178.18.454.721.635 1.172.363C41.476 19.334 44 18.7 46.704 18.7c9.466 0 17.128 7.706 17.128 17.225S56.17 53.15 46.704 53.15c-9.465 0-17.128-7.706-17.128-17.225 0-.907.09-1.723.18-2.63.09-.452-.27-.996-.72-.996-.451-.091-.992.272-.992.725-.18.907-.18 1.904-.18 2.81 0 10.517 8.473 19.039 18.93 19.039s18.931-8.522 18.931-19.039c0-10.516-8.474-18.857-18.93-18.857"/><path fill="#8D6C9F" d="M46.794 42.363c3.516 0 6.31-2.81 6.31-6.346s-2.794-6.347-6.31-6.347c-.36 0-.72 0-1.081.091a.94.94 0 0 0-.722 1.088.935.935 0 0 0 1.082.725c.27 0 .541-.09.721-.09 2.525 0 4.508 1.994 4.508 4.533 0 2.538-1.983 4.533-4.508 4.533s-4.507-1.995-4.507-4.533c0-.272 0-.544.09-.726.09-.453-.27-.997-.721-1.088a.935.935 0 0 0-1.082.726c-.09.362-.09.725-.09 1.088 0 3.535 2.795 6.346 6.31 6.346m-.901 3.626v1.813c0 .544.36.907.901.907s.902-.363.902-.907V45.99c0-.544-.36-.906-.902-.906-.54 0-.901.362-.901.906m-10.818-9.066h1.803c.541 0 .902-.362.902-.906s-.36-.907-.902-.907h-1.803c-.54 0-.901.363-.901.907s.36.906.901.906m5.41 10.063c.18.091.27.091.45.091.27 0 .63-.181.811-.453l.902-1.541c.27-.454.09-.998-.361-1.27s-.992-.09-1.262.363l-.901 1.541c-.18.453-.09.997.36 1.27M36.156 30.94l1.533.906c.18.091.27.091.45.091.27 0 .631-.181.812-.453.27-.454.09-.998-.361-1.27l-1.532-.906c-.451-.272-.992-.09-1.262.363-.18.453 0 .997.36 1.269m1.623 9.247-1.533.907c-.45.271-.54.816-.36 1.269.18.272.45.453.81.453.181 0 .271 0 .452-.09l1.532-.907c.45-.272.541-.816.36-1.27-.27-.453-.9-.543-1.261-.362"/><path fill="#8D6C9F" d="M57.612 36.017c0 4.08-2.254 7.797-5.86 9.61-.45.272-.63.816-.36 1.178.18.273.45.454.811.454.18 0 .27 0 .45-.09 4.148-2.086 6.762-6.438 6.762-11.152 0-6.98-5.68-12.692-12.62-12.692-1.984 0-4.057.453-5.86 1.45-.45.272-.631.816-.36 1.179.27.453.81.634 1.171.363 1.533-.817 3.245-1.27 4.958-1.27 6.04.09 10.908 4.986 10.908 10.97"/><ellipse cx="46.876" cy="35.934" stroke="#8D6C9F" stroke-width="1.8" rx="23.93" ry="24.066"/><path fill="#E6F6FF" d="M15.735 15 7.5 7.253l2-4.753 6.235 4.753z"/><path fill="#ED7899" d="m7.5 16-5-6 4.22-3.654 9.015 9.066z"/><path stroke="#8D6C9F" stroke-linecap="round" stroke-width="1.8" d="m26.88 27.363-11.145-11.21M4.917 5.276 7.54 7.912m0 0V4.716c0-1.766 2.12-2.665 3.39-1.438l4.487 4.34a2 2 0 0 1 .608 1.52l-.29 7.016M7.54 7.912l8.195 8.242M7.54 7.912H4.674c-1.76 0-2.662 2.108-1.447 3.381l4.05 4.242a2 2 0 0 0 1.446.619h7.012"/><path fill="#E6F6FF" d="m80.44 29.169 8.184-8.088L93.5 22.5l-5.849 6.73z"/><path fill="#ED7899" d="M80.61 21.002 86.5 15.5l3.131 4.674-9.093 8.987z"/><path stroke="#8D6C9F" stroke-linecap="round" stroke-width="1.8" d="M68.559 40.265 79.8 29.155M90.712 18.37l-2.645 2.615m0 0 3.188.028c1.76.015 2.644 2.133 1.416 3.394l-4.375 4.497a2 2 0 0 1-1.535.603l-6.96-.353m8.266-8.17-8.266 8.17m8.266-8.17.025-2.87c.015-1.766-2.096-2.684-3.376-1.47l-4.23 4.014a2 2 0 0 0-.624 1.433l-.061 7.063"/></svg>
